src/assets/cursors/Click.svg

<svg width="20" height="21" viewBox="0 0 20 21" fill="none" xmlns="http://www.w3.org/2000/svg">
<g filter="url(#filter0_d_0_176)">
<path fill-rule="evenodd" clip-rule="evenodd" d="M5.88499 14.5522C6.03528 14.6876 6.13905 14.7848 6.4597 15.0894C6.77376 15.3878 6.92564 15.5287 7.06452 15.6466C7.12244 15.6954 7.17182 15.8259 7.19139 16.0198C7.20748 16.1794 7.20188 16.3573 7.18237 16.5288C7.17562 16.5881 7.16911 16.6309 7.16538 16.6513C7.12351 16.8801 7.29787 17.0914 7.53045 17.0938C7.73975 17.0959 7.90102 17.0985 8.32787 17.1061C8.43467 17.108 8.43467 17.108 8.54182 17.1099C9.70211 17.1298 10.2947 17.1244 10.72 17.0709C11.1747 17.0137 11.6429 16.4647 12.0476 15.7758C12.3905 16.3854 12.8662 16.9806 13.3466 17.058C13.4992 17.0824 13.6838 17.09 13.8978 17.085C14.0573 17.0814 14.2261 17.0709 14.3965 17.0556C14.525 17.0442 14.6273 17.0326 14.6885 17.0247C14.9144 16.9954 15.0622 16.7731 15.0019 16.5534C14.9888 16.506 14.9679 16.4189 14.9467 16.3093C14.9222 16.1823 14.9045 16.0582 14.8965 15.9451C14.8914 15.8734 14.8904 15.8085 14.8936 15.7524C14.8993 15.6547 14.901 15.5999 14.9038 15.4734C14.9048 15.4263 14.9048 15.4263 14.9062 15.3851C14.9115 15.2502 14.9296 15.1221 14.9883 14.8429C15.0134 14.7217 15.1355 14.4897 15.3278 14.2026C15.3851 14.1171 15.4477 14.0278 15.5148 13.9357C15.642 13.7609 15.7789 13.5843 15.9159 13.4153C15.9979 13.314 16.0614 13.2383 16.0967 13.1972C16.3929 12.7728 16.7088 12.078 16.8248 11.6718C16.9362 11.2814 17.0254 10.5624 17.0801 9.85578C17.1101 9.45489 17.1213 9.13173 17.1213 8.6248C17.1213 8.53589 17.1213 8.53589 17.1215 8.46246C17.1217 8.34221 17.1218 8.29672 17.1214 8.24051C17.1203 8.08693 17.1158 7.9347 17.101 7.54648C17.0691 6.73283 16.6232 6.20679 15.9661 6.10532C15.4071 6.019 14.7267 6.48328 14.7267 6.48328C14.7267 6.48328 14.5753 5.96047 14.473 5.79907C14.3068 5.53972 13.8788 5.20924 13.5517 5.14486C13.2152 5.07952 12.8163 5.08675 12.4499 5.15154C12.1291 5.20894 11.8096 5.49536 11.6248 5.80431C11.4925 6.0247 11.6169 5.79262 11.4846 5.56463C11.3016 5.25061 10.8753 4.9694 10.4694 4.88641C10.1254 4.81528 9.73136 4.84237 9.37142 4.94934C8.90838 5.08771 8.83467 5.44008 8.81626 5.33919C8.75467 5.00095 8.74898 5.02318 8.7106 4.78189C8.56802 3.88662 8.40847 3.26716 8.16654 2.72661C8.18045 2.75769 8.07793 2.52446 8.04061 2.44404C7.976 2.30479 7.91151 2.17875 7.84062 2.05752C7.62211 1.68387 7.37171 1.40411 7.05753 1.24518C6.51192 0.968889 5.69411 1.10335 5.30647 1.55583C4.92151 2.0055 4.85733 2.75732 4.95427 3.68767C4.9913 4.04888 5.12106 4.70833 5.23872 5.1958C5.28033 5.36498 5.31678 5.51928 5.38364 5.80431C5.39514 5.85279 5.39514 5.85279 5.40673 5.90129C5.45846 6.11701 5.50381 6.29449 5.55796 6.48925C5.55228 6.46895 5.65497 6.83334 5.67685 6.91398C5.68412 6.9409 5.68412 6.9409 5.69133 6.96793C5.73216 7.12171 5.77207 7.28753 5.83443 7.56424C5.86856 7.71639 5.90185 7.87893 5.93443 8.05123C6.02326 8.52117 6.0237 8.42331 5.93819 8.3231C5.87911 8.25387 5.82355 8.191 5.76988 8.13306C5.67011 8.02536 5.57839 7.93629 5.49132 7.86525C4.85692 7.34619 4.46819 7.11685 3.9345 7.06646C3.05909 6.98236 2.22831 7.60073 2.10339 8.43529C2.02656 8.94699 2.05131 9.18253 2.28802 9.63472C2.41828 9.87905 2.63863 10.1741 3.04975 10.6821C3.07491 10.7131 3.07491 10.7131 3.10005 10.7441C3.6047 11.366 3.65968 11.4351 3.77967 11.6089C4.10402 12.0796 4.89362 13.431 5.03715 13.6125L5.88499 14.5522Z" fill="black"/>
<path fill-rule="evenodd" clip-rule="evenodd" d="M3.68284 10.2715C3.65795 10.2409 3.65795 10.2409 3.63313 10.2102C3.25584 9.74407 3.04895 9.467 2.95157 9.28436C2.79875 8.99241 2.79044 8.91329 2.84551 8.54648C2.91025 8.114 3.37733 7.76634 3.86381 7.81308C4.20041 7.84486 4.49449 8.01836 5.0172 8.44603C5.0738 8.49221 5.14203 8.55847 5.22009 8.64273C5.26625 8.69257 5.31522 8.74798 5.36809 8.80993C5.4475 8.90299 5.71512 9.23045 5.6757 9.1828C5.73385 9.25272 5.77542 9.30688 5.82292 9.37325C5.91703 9.50759 5.96997 9.5822 6.04167 9.6778C6.00805 9.63293 6.2564 9.97623 6.30899 10.0264C6.58759 10.2924 6.99102 10.0684 6.96575 9.71398C6.96153 9.65482 6.94762 9.5909 6.91857 9.47931C6.8037 8.66008 6.76351 8.39713 6.67179 7.91191C6.63771 7.73167 6.60274 7.56093 6.56658 7.39972C6.50222 7.11415 6.46022 6.93965 6.41663 6.77547C6.40888 6.7464 6.40888 6.7464 6.40111 6.71764C6.3781 6.63282 6.27385 6.26293 6.2808 6.28775C6.22945 6.10307 6.18625 5.93401 6.13648 5.72641C6.12517 5.67912 6.12517 5.67912 6.11388 5.63151C6.04739 5.348 6.01 5.18975 5.96782 5.01824C5.85783 4.56256 5.73356 3.93104 5.70071 3.61056C5.62525 2.88634 5.67732 2.27637 5.87654 2.04367C6.03209 1.8621 6.47295 1.78962 6.71925 1.91435C6.88033 1.99583 7.0413 2.17566 7.19361 2.43612C7.25125 2.53469 7.30533 2.64038 7.36069 2.75969C7.39422 2.83195 7.49362 3.05806 7.48242 3.03306C7.69274 3.50298 7.83722 4.06393 7.97034 4.89978C8.00973 5.14744 8.05847 5.42801 8.12098 5.77128C8.13955 5.87307 8.13955 5.87307 8.1582 5.97442C8.4596 7.60976 8.43754 7.48582 8.44188 7.61625C8.45768 8.09203 9.15998 8.10317 9.19088 7.62814C9.20068 7.47748 9.19719 7.34297 9.1798 6.95667C9.17735 6.90202 9.17734 6.90202 9.17498 6.84757C9.15977 6.49166 9.16064 6.2869 9.18169 6.17051C9.22003 5.95828 9.41056 5.72053 9.58603 5.6681C9.83245 5.59486 10.1024 5.5763 10.3187 5.62103C10.5258 5.66336 10.7674 5.82275 10.8367 5.94165C10.9202 6.08565 10.9919 6.30503 11.0468 6.57696C11.0911 6.79644 11.1216 7.03189 11.143 7.2832C11.1497 7.36139 11.154 7.4218 11.1607 7.52175C11.1636 7.56358 11.1636 7.56358 11.1664 7.5981C11.168 7.61541 11.168 7.61541 11.1719 7.64277C11.175 7.66195 11.175 7.66195 11.1893 7.71051C11.1966 7.84833 11.1966 7.84833 11.7501 7.89944C11.9154 7.69961 11.9154 7.69961 11.9109 7.66458C11.9379 7.54623 11.9545 7.41431 11.9781 7.16644C11.9932 7.00531 12.0008 6.9261 12.0097 6.84394C12.0465 6.50382 12.0932 6.28772 12.1502 6.19273C12.2209 6.07454 12.47 5.90992 12.5817 5.88993C12.8623 5.84032 13.1703 5.83473 13.4082 5.88092C13.5159 5.90212 13.7787 6.10506 13.8409 6.20213C13.9687 6.40369 14.0929 7.05351 14.1629 7.69825C14.1518 7.74054 14.1518 7.74054 14.3236 7.98585C14.9139 7.91855 14.9139 7.91855 14.8973 7.81196C14.9129 7.77397 14.9253 7.73005 14.9428 7.66182C14.985 7.50212 15.013 7.40938 15.0547 7.30546C15.0835 7.23357 15.1139 7.17211 15.145 7.12318C15.2657 6.93326 15.5781 6.80422 15.8521 6.84653C16.1463 6.89197 16.3338 7.11318 16.352 7.5755C16.3665 7.95593 16.3708 8.10218 16.3718 8.24573C16.3722 8.29869 16.3722 8.34122 16.3719 8.46082C16.3717 8.53474 16.3717 8.53473 16.3717 8.6248C16.3717 9.11372 16.3612 9.41833 16.3327 9.7988C16.2821 10.4521 16.1966 11.1416 16.1041 11.4659C16.0096 11.7965 15.7276 12.4168 15.5043 12.7394C15.4885 12.7547 15.4205 12.8358 15.3336 12.943C15.189 13.1215 15.0444 13.308 14.9088 13.4943C14.8363 13.594 14.7681 13.6912 14.7051 13.7852C14.4615 14.149 14.3051 14.446 14.2545 14.6895C14.1881 15.0059 14.1643 15.1737 14.1572 15.3557C14.1555 15.4072 14.1555 15.4072 14.1544 15.4572C14.1518 15.5752 14.1503 15.6229 14.1453 15.7092C14.1401 15.7999 14.1415 15.8964 14.1488 15.9983C14.1592 16.1443 14.1488 16.3438 14.1488 16.3438C14.1488 16.3438 14.0222 16.332 13.8809 16.3352C13.7084 16.3392 13.565 16.3333 13.4658 16.3175C13.3228 16.2944 12.9365 15.811 12.7387 15.4344C12.4364 14.858 11.7026 14.886 11.4018 15.395C11.1305 15.8568 10.7422 16.3122 10.6269 16.3267C10.2523 16.3738 9.67218 16.3792 8.55513 16.36C8.44834 16.3581 8.44834 16.3581 8.34165 16.3562C7.91275 16.3486 7.92923 16.421 7.93801 16.3438C7.96308 16.1235 7.96024 16.1648 7.93801 15.9445C7.90075 15.5752 7.78676 15.274 7.54924 15.074C7.42637 14.9696 7.27941 14.8332 6.98423 14.5529C6.64701 14.2325 6.5414 14.1335 6.41124 14.0191L5.60994 13.1284C5.52198 13.0159 4.74991 11.6945 4.39745 11.183C4.26034 10.9844 4.20906 10.92 3.68284 10.2715ZM13.1916 10.2753V13.7343C13.1916 14.2343 13.9416 14.2343 13.9416 13.7343V10.2753C13.9416 9.7753 13.1916 9.7753 13.1916 10.2753ZM11.16 10.2747L11.176 13.7477C11.1783 14.2477 11.9283 14.2443 11.926 13.7443L11.91 10.2713C11.9077 9.77127 11.1577 9.77473 11.16 10.2747ZM9.95086 13.7283L9.92986 10.3023C9.9268 9.80231 9.17681 9.8069 9.17988 10.3069L9.20088 13.7329C9.20394 14.2329 9.95393 14.2283 9.95086 13.7283Z" fill="white"/>
</g>
<defs>
<filter id="filter0_d_0_176" x="0.0644531" y="0.102051" width="19.0566" height="20.0186" filterUnits="userSpaceOnUse" color-interpolation-filters="sRGB">
<feFlood flood-opacity="0" result="BackgroundImageFix"/>
<feColorMatrix in="SourceAlpha" type="matrix" values="0 0 0 0 0 0 0 0 0 0 0 0 0 0 0 0 0 0 127 0" result="hardAlpha"/>
<feOffset dy="1"/>
<feGaussianBlur stdDeviation="1"/>
<feColorMatrix type="matrix" values="0 0 0 0 0 0 0 0 0 0 0 0 0 0 0 0 0 0 0.298656 0"/>
<feBlend mode="normal" in2="BackgroundImageFix" result="effect1_dropShadow_0_176"/>
<feBlend mode="normal" in="SourceGraphic" in2="effect1_dropShadow_0_176" result="shape"/>
</filter>
</defs>
</svg>

<svg width="20" height="21" fill="none" xmlns="http://www.w3.org/2000/svg"><g filter="url(#filter0_d_0_176)" fill-rule="evenodd" clip-rule="evenodd"><path d="M5.885 14.552c.15.136.254.233.575.537.314.299.466.44.605.558.057.048.107.179.126.373a2.447 2.447 0 0 1-.026.631.375.375 0 0 0 .365.443c.21.002.371.005.798.012l.214.004c1.16.02 1.753.014 2.178-.04.455-.056.923-.605 1.328-1.294.342.61.818 1.205 1.299 1.282.152.024.337.032.55.027a7.536 7.536 0 0 0 .791-.06.375.375 0 0 0 .314-.472 3.463 3.463 0 0 1-.106-.608 1.531 1.531 0 0 1-.002-.193c.005-.097.007-.152.01-.279 0-.047 0-.047.002-.088.005-.135.024-.263.082-.542.025-.121.148-.353.34-.64a12.733 12.733 0 0 1 .769-1.005c.296-.425.612-1.12.728-1.526.111-.39.2-1.11.255-1.816.03-.401.041-.724.041-1.231v-.163-.221a22.111 22.111 0 0 0-.02-.695c-.032-.813-.478-1.34-1.135-1.44-.559-.087-1.24.377-1.24.377s-.15-.523-.253-.684c-.166-.26-.594-.59-.921-.654a3.137 3.137 0 0 0-1.102.007c-.32.057-.64.343-.825.652-.133.22-.008-.011-.14-.24-.183-.313-.61-.595-1.016-.678a2.312 2.312 0 0 0-1.098.063c-.463.139-.536.491-.555.39-.061-.338-.067-.316-.105-.557-.143-.895-.303-1.515-.544-2.055l-.126-.283a4.556 4.556 0 0 0-.2-.386c-.219-.374-.47-.654-.783-.813-.546-.276-1.364-.142-1.752.31-.384.45-.449 1.202-.352 2.133.037.36.167 1.02.285 1.508l.145.608.023.097c.051.216.097.393.151.588a93.816 93.816 0 0 1 .133.479 15.8 15.8 0 0 1 .243 1.083c.09.47.09.372.004.272a6.246 6.246 0 0 0-.168-.19 2.815 2.815 0 0 0-.279-.268c-.634-.519-1.023-.748-1.556-.799-.876-.084-1.707.535-1.832 1.37-.076.511-.052.747.185 1.199.13.244.35.54.762 1.047l.05.062c.505.622.56.691.68.865.324.47 1.114 1.822 1.257 2.004l.848.94z" fill="#000"/><path d="M3.683 10.271l-.05-.06c-.377-.467-.584-.744-.681-.927-.153-.292-.162-.37-.106-.738.064-.432.531-.78 1.018-.733.336.032.63.205 1.153.633.057.046.125.112.203.197.046.05.095.105.148.167.08.093.347.42.308.373.058.07.1.124.147.19.094.135.147.21.219.305-.034-.045.214.298.267.348.279.266.682.042.657-.312a1.324 1.324 0 0 0-.047-.235 28.147 28.147 0 0 0-.247-1.567 16.498 16.498 0 0 0-.255-1.136L6.4 6.717l-.12-.43a15.461 15.461 0 0 1-.145-.562l-.022-.094a56.523 56.523 0 0 0-.146-.614A13.458 13.458 0 0 1 5.7 3.611c-.076-.725-.024-1.335.176-1.567.155-.182.596-.254.842-.13.161.082.322.262.475.522.057.099.111.204.167.324l.121.273c.21.47.355 1.03.488 1.867a39.853 39.853 0 0 0 .188 1.074c.302 1.636.28 1.512.284 1.642.016.476.718.487.749.012.01-.15.006-.285-.011-.671l-.005-.11c-.015-.355-.014-.56.007-.676.038-.213.229-.45.404-.503.246-.073.516-.092.733-.047.207.042.448.202.518.32.083.145.155.364.21.636.044.22.075.455.096.706a11.791 11.791 0 0 1 .023.315l.006.045c.003.019.003.019.017.068.008.137.008.137.561.188.165-.2.165-.2.16-.234.028-.119.044-.25.068-.499l.032-.322c.037-.34.083-.556.14-.651.07-.118.32-.283.432-.303.28-.05.588-.055.826-.01.108.022.37.225.433.322.128.202.252.852.322 1.496-.011.043-.011.043.16.288.59-.067.59-.067.574-.174.016-.038.028-.082.046-.15.042-.16.07-.253.112-.357.029-.071.059-.133.09-.182.12-.19.433-.319.707-.276.294.045.482.266.5.728a21.438 21.438 0 0 1 .02.886v.164c0 .489-.01.793-.04 1.174-.05.653-.135 1.343-.228 1.667-.094.33-.376.95-.6 1.273a13.582 13.582 0 0 0-.8 1.046c-.242.364-.399.661-.45.905-.066.316-.09.484-.097.666l-.003.101a5.931 5.931 0 0 1-.009.252c-.005.09-.003.187.004.29.01.145 0 .345 0 .345s-.127-.012-.268-.009a2.474 2.474 0 0 1-.415-.018c-.143-.023-.53-.506-.727-.883-.303-.576-1.036-.548-1.337-.039-.271.462-.66.917-.775.932-.375.047-.955.052-2.072.033l-.213-.004c-.43-.007-.413.065-.404-.012.025-.22.022-.18 0-.4-.037-.369-.151-.67-.389-.87a14.87 14.87 0 0 1-.565-.521c-.337-.32-.443-.42-.573-.534l-.801-.89c-.088-.113-.86-1.434-1.213-1.946-.137-.199-.188-.263-.714-.912zm9.509.004v3.46c0 .5.75.5.75 0v-3.46c0-.5-.75-.5-.75 0zm-2.032 0l.016 3.473c.002.5.752.496.75-.004l-.016-3.473c-.002-.5-.752-.496-.75.004zm-1.21 3.453l-.02-3.426c-.003-.5-.753-.495-.75.005l.02 3.426c.004.5.754.495.75-.005z" fill="#fff"/></g><defs><filter id="filter0_d_0_176" x=".064" y=".102" width="19.057" height="20.019" filterUnits="userSpaceOnUse" color-interpolation-filters="sRGB"><feFlood flood-opacity="0" result="BackgroundImageFix"/><feColorMatrix in="SourceAlpha" values="0 0 0 0 0 0 0 0 0 0 0 0 0 0 0 0 0 0 127 0" result="hardAlpha"/><feOffset dy="1"/><feGaussianBlur stdDeviation="1"/><feColorMatrix values="0 0 0 0 0 0 0 0 0 0 0 0 0 0 0 0 0 0 0.298656 0"/><feBlend in2="BackgroundImageFix" result="effect1_dropShadow_0_176"/><feBlend in="SourceGraphic" in2="effect1_dropShadow_0_176" result="shape"/></filter></defs></svg>
